images/16759277.svg

<?xml version="1.0" encoding="UTF-8"?>
<svg xmlns="http://www.w3.org/2000/svg" xmlns:xlink="http://www.w3.org/1999/xlink" width="300pt" height="300pt" viewBox="0 0 300 300" version="1.1">
<defs>
<g>
<symbol overflow="visible" id="glyph0-0">
<path style="stroke:none;" d="M 0.453125 1.59375 L 0.453125 -6.34375 L 4.953125 -6.34375 L 4.953125 1.59375 Z M 0.953125 1.09375 L 4.453125 1.09375 L 4.453125 -5.84375 L 0.953125 -5.84375 Z M 0.953125 1.09375 "/>
</symbol>
<symbol overflow="visible" id="glyph0-1">
<path style="stroke:none;" d="M 3.546875 -5.953125 C 2.898438 -5.953125 2.382812 -5.710938 2 -5.234375 C 1.625 -4.753906 1.4375 -4.101562 1.4375 -3.28125 C 1.4375 -2.445312 1.625 -1.789062 2 -1.3125 C 2.382812 -0.832031 2.898438 -0.59375 3.546875 -0.59375 C 4.191406 -0.59375 4.703125 -0.832031 5.078125 -1.3125 C 5.453125 -1.789062 5.640625 -2.445312 5.640625 -3.28125 C 5.640625 -4.101562 5.453125 -4.753906 5.078125 -5.234375 C 4.703125 -5.710938 4.191406 -5.953125 3.546875 -5.953125 Z M 3.546875 -6.6875 C 4.460938 -6.6875 5.195312 -6.375 5.75 -5.75 C 6.300781 -5.132812 6.578125 -4.3125 6.578125 -3.28125 C 6.578125 -2.238281 6.300781 -1.410156 5.75 -0.796875 C 5.195312 -0.179688 4.460938 0.125 3.546875 0.125 C 2.617188 0.125 1.878906 -0.179688 1.328125 -0.796875 C 0.773438 -1.410156 0.5 -2.238281 0.5 -3.28125 C 0.5 -4.3125 0.773438 -5.132812 1.328125 -5.75 C 1.878906 -6.375 2.617188 -6.6875 3.546875 -6.6875 Z M 3.546875 -6.6875 "/>
</symbol>
<symbol overflow="visible" id="glyph0-2">
<path style="stroke:none;" d="M 0.890625 -6.5625 L 1.765625 -6.5625 L 1.765625 -3.875 L 5 -3.875 L 5 -6.5625 L 5.890625 -6.5625 L 5.890625 0 L 5 0 L 5 -3.125 L 1.765625 -3.125 L 1.765625 0 L 0.890625 0 Z M 0.890625 -6.5625 "/>
</symbol>
</g>
</defs>
<g id="surface34241">
<rect x="0" y="0" width="300" height="300" style="fill:rgb(100%,100%,100%);fill-opacity:1;stroke:none;"/>
<path style=" stroke:none;fill-rule:nonzero;fill:rgb(0%,0%,0%);fill-opacity:1;" d="M 200.335938 173.519531 L 205.429688 195.800781 L 212.746094 192.710938 Z M 200.335938 173.519531 "/>
<path style="fill:none;stroke-width:1.2;stroke-linecap:butt;stroke-linejoin:miter;stroke:rgb(0%,0%,0%);stroke-opacity:1;stroke-miterlimit:10;" d="M 200.335938 173.519531 L 222.667969 176.304688 "/>
<path style="fill:none;stroke-width:1.2;stroke-linecap:butt;stroke-linejoin:miter;stroke:rgb(0%,0%,0%);stroke-opacity:1;stroke-miterlimit:10;" d="M 191.582031 152.785156 L 200.335938 173.519531 "/>
<path style="fill:none;stroke-width:1.2;stroke-linecap:butt;stroke-linejoin:miter;stroke:rgb(0%,0%,0%);stroke-opacity:1;stroke-miterlimit:10;" d="M 186.753906 191.46875 L 200.335938 173.519531 "/>
<path style="fill:none;stroke-width:1.2;stroke-linecap:butt;stroke-linejoin:miter;stroke:rgb(0%,0%,0%);stroke-opacity:1;stroke-miterlimit:10;" d="M 222.667969 176.304688 L 236.246094 158.359375 "/>
<path style="fill:none;stroke-width:1.2;stroke-linecap:butt;stroke-linejoin:miter;stroke:rgb(0%,0%,0%);stroke-opacity:1;stroke-miterlimit:10;" d="M 236.246094 158.359375 L 227.492188 137.625 "/>
<path style="fill:none;stroke-width:1.2;stroke-linecap:butt;stroke-linejoin:miter;stroke:rgb(0%,0%,0%);stroke-opacity:1;stroke-miterlimit:10;" d="M 227.492188 137.625 L 205.160156 134.839844 "/>
<path style="fill:none;stroke-width:1;stroke-linecap:butt;stroke-linejoin:miter;stroke:rgb(0%,0%,0%);stroke-opacity:1;stroke-miterlimit:10;" d="M 227.492188 137.625 L 227.492188 137.625 M 227.867188 134.648438 L 226.824219 134.699219 M 228.238281 131.671875 L 226.15625 131.777344 M 228.609375 128.695312 L 225.484375 128.851562 M 228.980469 125.714844 L 224.816406 125.925781 M 229.351562 122.738281 L 224.144531 123.003906 M 229.722656 119.761719 L 223.476562 120.078125 M 230.097656 116.785156 L 222.804688 117.152344 M 230.324219 114.945312 L 222.394531 115.347656 "/>
<path style="fill:none;stroke-width:1.2;stroke-linecap:butt;stroke-linejoin:miter;stroke:rgb(0%,0%,0%);stroke-opacity:1;stroke-miterlimit:10;" d="M 227.492188 137.625 L 249.433594 132.605469 "/>
<path style="fill:none;stroke-width:1.2;stroke-linecap:butt;stroke-linejoin:miter;stroke:rgb(0%,0%,0%);stroke-opacity:1;stroke-miterlimit:10;" d="M 205.160156 134.839844 L 191.582031 152.785156 "/>
<path style="fill:none;stroke-width:1.2;stroke-linecap:butt;stroke-linejoin:miter;stroke:rgb(0%,0%,0%);stroke-opacity:1;stroke-miterlimit:10;" d="M 191.582031 152.785156 L 169.25 150 "/>
<path style="fill:none;stroke-width:1.2;stroke-linecap:butt;stroke-linejoin:miter;stroke:rgb(0%,0%,0%);stroke-opacity:1;stroke-miterlimit:10;" d="M 169.25 150 L 160.496094 129.265625 "/>
<path style="fill:none;stroke-width:1.2;stroke-linecap:butt;stroke-linejoin:miter;stroke:rgb(0%,0%,0%);stroke-opacity:1;stroke-miterlimit:10;" d="M 163.496094 149.984375 L 156.492188 133.398438 "/>
<path style="fill:none;stroke-width:1.2;stroke-linecap:butt;stroke-linejoin:miter;stroke:rgb(0%,0%,0%);stroke-opacity:1;stroke-miterlimit:10;" d="M 155.667969 167.949219 L 169.25 150 "/>
<path style="fill:none;stroke-width:1.2;stroke-linecap:butt;stroke-linejoin:miter;stroke:rgb(0%,0%,0%);stroke-opacity:1;stroke-miterlimit:10;" d="M 160.496094 129.265625 L 138.160156 126.480469 "/>
<path style="fill:none;stroke-width:1.2;stroke-linecap:butt;stroke-linejoin:miter;stroke:rgb(0%,0%,0%);stroke-opacity:1;stroke-miterlimit:10;" d="M 140.601562 125.449219 L 136.222656 115.082031 "/>
<path style="fill:none;stroke-width:1.2;stroke-linecap:butt;stroke-linejoin:miter;stroke:rgb(100%,0%,0%);stroke-opacity:1;stroke-miterlimit:10;" d="M 136.222656 115.082031 L 131.847656 104.714844 "/>
<path style="fill:none;stroke-width:1.2;stroke-linecap:butt;stroke-linejoin:miter;stroke:rgb(0%,0%,0%);stroke-opacity:1;stroke-miterlimit:10;" d="M 135.722656 127.507812 L 131.34375 117.144531 "/>
<path style="fill:none;stroke-width:1.2;stroke-linecap:butt;stroke-linejoin:miter;stroke:rgb(100%,0%,0%);stroke-opacity:1;stroke-miterlimit:10;" d="M 131.34375 117.144531 L 126.96875 106.777344 "/>
<path style="fill:none;stroke-width:1.2;stroke-linecap:butt;stroke-linejoin:miter;stroke:rgb(0%,0%,0%);stroke-opacity:1;stroke-miterlimit:10;" d="M 138.160156 126.480469 L 124.582031 144.429688 "/>
<path style=" stroke:none;fill-rule:nonzero;fill:rgb(100%,100%,100%);fill-opacity:1;" d="M 121.40625 100.246094 L 129.40625 100.246094 L 129.40625 111.246094 L 121.40625 111.246094 Z M 121.40625 100.246094 "/>
<g style="fill:rgb(100%,0%,0%);fill-opacity:1;">
  <use xlink:href="#glyph0-1" x="121.40625" y="108.90918"/>
</g>
<path style="fill:none;stroke-width:1.2;stroke-linecap:butt;stroke-linejoin:miter;stroke:rgb(0%,0%,0%);stroke-opacity:1;stroke-miterlimit:10;" d="M 124.582031 144.429688 L 102.25 141.640625 "/>
<path style="fill:none;stroke-width:1.2;stroke-linecap:butt;stroke-linejoin:miter;stroke:rgb(0%,0%,0%);stroke-opacity:1;stroke-miterlimit:10;" d="M 133.335938 165.160156 L 124.582031 144.429688 "/>
<path style="fill:none;stroke-width:1.2;stroke-linecap:butt;stroke-linejoin:miter;stroke:rgb(0%,0%,0%);stroke-opacity:1;stroke-miterlimit:10;" d="M 102.25 141.640625 L 93.496094 120.90625 "/>
<path style=" stroke:none;fill-rule:nonzero;fill:rgb(0%,0%,0%);fill-opacity:1;" d="M 102.25 141.640625 L 118.996094 126.089844 L 112.660156 121.296875 Z M 102.25 141.640625 "/>
<path style="fill:none;stroke-width:1.2;stroke-linecap:butt;stroke-linejoin:miter;stroke:rgb(0%,0%,0%);stroke-opacity:1;stroke-miterlimit:10;" d="M 88.667969 159.589844 L 102.25 141.640625 "/>
<path style="fill:none;stroke-width:1.2;stroke-linecap:butt;stroke-linejoin:miter;stroke:rgb(0%,0%,0%);stroke-opacity:1;stroke-miterlimit:10;" d="M 93.496094 120.90625 L 71.164062 118.121094 "/>
<path style="fill:none;stroke-width:1.2;stroke-linecap:butt;stroke-linejoin:miter;stroke:rgb(0%,0%,0%);stroke-opacity:1;stroke-miterlimit:10;" d="M 71.164062 118.121094 L 57.582031 136.070312 "/>
<path style="fill:none;stroke-width:1.2;stroke-linecap:butt;stroke-linejoin:miter;stroke:rgb(0%,0%,0%);stroke-opacity:1;stroke-miterlimit:10;" d="M 57.582031 136.070312 L 66.335938 156.804688 "/>
<path style=" stroke:none;fill-rule:nonzero;fill:rgb(0%,0%,0%);fill-opacity:1;" d="M 57.582031 136.070312 L 35.742188 129.34375 L 34.757812 137.226562 Z M 57.582031 136.070312 "/>
<path style=" stroke:none;fill-rule:nonzero;fill:rgb(0%,0%,0%);fill-opacity:1;" d="M 88.667969 159.589844 L 66.828125 152.863281 L 65.84375 160.746094 Z M 88.667969 159.589844 "/>
<path style="fill:none;stroke-width:1.2;stroke-linecap:butt;stroke-linejoin:miter;stroke:rgb(0%,0%,0%);stroke-opacity:1;stroke-miterlimit:10;" d="M 66.335938 156.804688 L 67.472656 179.28125 "/>
<path style="fill:none;stroke-width:1.2;stroke-linecap:butt;stroke-linejoin:miter;stroke:rgb(0%,0%,0%);stroke-opacity:1;stroke-miterlimit:10;" d="M 66.335938 156.804688 L 44.398438 161.824219 "/>
<path style="fill:none;stroke-width:1.2;stroke-linecap:butt;stroke-linejoin:miter;stroke:rgb(0%,0%,0%);stroke-opacity:1;stroke-miterlimit:10;" d="M 88.667969 159.589844 L 97.421875 180.324219 "/>
<path style="fill:none;stroke-width:1.2;stroke-linecap:butt;stroke-linejoin:miter;stroke:rgb(0%,0%,0%);stroke-opacity:1;stroke-miterlimit:10;" d="M 97.421875 180.324219 L 119.757812 183.109375 "/>
<path style="fill:none;stroke-width:1.2;stroke-linecap:butt;stroke-linejoin:miter;stroke:rgb(0%,0%,0%);stroke-opacity:1;stroke-miterlimit:10;" d="M 119.757812 183.109375 L 133.335938 165.160156 "/>
<path style="fill:none;stroke-width:1.2;stroke-linecap:butt;stroke-linejoin:miter;stroke:rgb(0%,0%,0%);stroke-opacity:1;stroke-miterlimit:10;" d="M 133.335938 165.160156 L 155.667969 167.949219 "/>
<path style=" stroke:none;fill-rule:nonzero;fill:rgb(0%,0%,0%);fill-opacity:1;" d="M 133.335938 165.160156 L 133.558594 180.453125 L 141.199219 178.277344 Z M 133.335938 165.160156 "/>
<path style="fill:none;stroke-width:1.2;stroke-linecap:butt;stroke-linejoin:miter;stroke:rgb(0%,0%,0%);stroke-opacity:1;stroke-miterlimit:10;" d="M 155.667969 167.949219 L 164.421875 188.683594 "/>
<path style="fill:none;stroke-width:1;stroke-linecap:butt;stroke-linejoin:miter;stroke:rgb(0%,0%,0%);stroke-opacity:1;stroke-miterlimit:10;" d="M 155.667969 167.949219 L 155.667969 167.949219 M 153.542969 170.0625 L 154.890625 170.84375 M 151.414062 172.179688 L 154.109375 173.742188 M 149.285156 174.292969 L 153.332031 176.640625 M 147.160156 176.410156 L 152.550781 179.535156 M 145.03125 178.523438 L 151.773438 182.433594 M 144.824219 178.730469 L 151.695312 182.714844 "/>
<path style="fill:none;stroke-width:1.2;stroke-linecap:butt;stroke-linejoin:miter;stroke:rgb(0%,0%,0%);stroke-opacity:1;stroke-miterlimit:10;" d="M 164.421875 188.683594 L 186.753906 191.46875 "/>
<path style=" stroke:none;fill-rule:nonzero;fill:rgb(100%,100%,100%);fill-opacity:1;" d="M 20.25 127.785156 L 35.25 127.785156 L 35.25 138.785156 L 20.25 138.785156 Z M 20.25 127.785156 "/>
<g style="fill:rgb(100%,0%,0%);fill-opacity:1;">
  <use xlink:href="#glyph0-2" x="20.25" y="136.448242"/>
  <use xlink:href="#glyph0-1" x="27.264648" y="136.448242"/>
</g>
<path style="fill:none;stroke-width:1.2;stroke-linecap:butt;stroke-linejoin:miter;stroke:rgb(0%,0%,0%);stroke-opacity:1;stroke-miterlimit:10;" d="M 251.964844 133.382812 L 255.273438 122.628906 "/>
<path style="fill:none;stroke-width:1.2;stroke-linecap:butt;stroke-linejoin:miter;stroke:rgb(100%,0%,0%);stroke-opacity:1;stroke-miterlimit:10;" d="M 255.273438 122.628906 L 258.585938 111.871094 "/>
<path style="fill:none;stroke-width:1.2;stroke-linecap:butt;stroke-linejoin:miter;stroke:rgb(0%,0%,0%);stroke-opacity:1;stroke-miterlimit:10;" d="M 246.902344 131.824219 L 250.214844 121.070312 "/>
<path style="fill:none;stroke-width:1.2;stroke-linecap:butt;stroke-linejoin:miter;stroke:rgb(100%,0%,0%);stroke-opacity:1;stroke-miterlimit:10;" d="M 250.214844 121.070312 L 253.523438 110.316406 "/>
<path style="fill:none;stroke-width:1.2;stroke-linecap:butt;stroke-linejoin:miter;stroke:rgb(0%,0%,0%);stroke-opacity:1;stroke-miterlimit:10;" d="M 249.433594 132.605469 L 257.089844 140.847656 "/>
<path style="fill:none;stroke-width:1.2;stroke-linecap:butt;stroke-linejoin:miter;stroke:rgb(100%,0%,0%);stroke-opacity:1;stroke-miterlimit:10;" d="M 257.089844 140.847656 L 264.75 149.09375 "/>
<path style=" stroke:none;fill-rule:nonzero;fill:rgb(100%,100%,100%);fill-opacity:1;" d="M 252.054688 105.59375 L 260.054688 105.59375 L 260.054688 116.59375 L 252.054688 116.59375 Z M 252.054688 105.59375 "/>
<g style="fill:rgb(100%,0%,0%);fill-opacity:1;">
  <use xlink:href="#glyph0-1" x="252.054688" y="114.256836"/>
</g>
<path style=" stroke:none;fill-rule:nonzero;fill:rgb(100%,100%,100%);fill-opacity:1;" d="M 257.75 143.59375 L 272.75 143.59375 L 272.75 154.59375 L 257.75 154.59375 Z M 257.75 143.59375 "/>
<g style="fill:rgb(100%,0%,0%);fill-opacity:1;">
  <use xlink:href="#glyph0-1" x="257.75" y="152.256836"/>
  <use xlink:href="#glyph0-2" x="265.091797" y="152.256836"/>
</g>
</g>
</svg>

<svg xmlns="http://www.w3.org/2000/svg" xmlns:xlink="http://www.w3.org/1999/xlink" width="300pt" height="300pt" viewBox="0 0 300 300"><defs><symbol overflow="visible"><path d="M.453 1.594v-7.938h4.5v7.938zm.5-.5h3.5v-6.938h-3.5zm0 0"/></symbol><symbol overflow="visible" id="a"><path d="M3.547-5.953c-.65 0-1.164.242-1.547.72-.375.48-.563 1.13-.563 1.952 0 .835.188 1.49.563 1.967.383.48.898.72 1.547.72.644 0 1.156-.24 1.53-.72.376-.476.564-1.132.564-1.968 0-.822-.187-1.474-.562-1.954-.375-.477-.887-.72-1.53-.72zm0-.734c.914 0 1.648.312 2.203.937.55.617.828 1.438.828 2.47 0 1.042-.277 1.87-.828 2.483-.555.617-1.29.922-2.203.922-.93 0-1.668-.305-2.22-.922C.774-1.41.5-2.237.5-3.28c0-1.033.273-1.853.828-2.47.55-.625 1.29-.938 2.22-.938zm0 0"/></symbol><symbol overflow="visible" id="b"><path d="M.89-6.563h.876v2.688H5v-2.688h.89V0H5v-3.125H1.766V0H.89zm0 0"/></symbol></defs><g><path fill="#fff" d="M0 0h300v300H0z"/><path d="M200.336 173.52l5.094 22.28 7.316-3.09zm0 0"/><path d="M200.336 173.52l22.332 2.785M191.582 152.785l8.754 20.735M186.754 191.47l13.582-17.95M222.668 176.305l13.578-17.946M236.246 158.36l-8.754-20.735M227.492 137.625l-22.332-2.785" stroke-width="1.2" stroke="#000" stroke-miterlimit="10" fill="none"/><path d="M227.492 137.625m.375-2.977l-1.043.05m1.414-3.026l-2.082.105m2.453-3.082l-3.126.157m3.496-3.137l-4.164.21m4.536-3.187l-5.207.266m5.578-3.242l-6.246.316m6.62-3.293l-7.292.367m7.52-2.207l-7.93.403" stroke="#000" stroke-miterlimit="10" fill="none"/><path d="M227.492 137.625l21.942-5.02M205.16 134.84l-13.578 17.945M191.582 152.785L169.25 150M169.25 150l-8.754-20.734M163.496 149.984l-7.004-16.586M155.668 167.95L169.25 150M160.496 129.266l-22.336-2.786M140.602 125.45l-4.38-10.368" stroke-width="1.2" stroke="#000" stroke-miterlimit="10" fill="none"/><path d="M136.223 115.082l-4.375-10.367" stroke-width="1.2" stroke="#f00" stroke-miterlimit="10" fill="none"/><path d="M135.723 127.508l-4.38-10.363" stroke-width="1.2" stroke="#000" stroke-miterlimit="10" fill="none"/><path d="M131.344 117.145l-4.375-10.368" stroke-width="1.2" stroke="#f00" stroke-miterlimit="10" fill="none"/><path d="M138.16 126.48l-13.578 17.95" stroke-width="1.2" stroke="#000" stroke-miterlimit="10" fill="none"/><path d="M121.406 100.246h8v11h-8zm0 0" fill="#fff"/><use xlink:href="#a" x="121.406" y="108.909" fill="#f00"/><path d="M124.582 144.43l-22.332-2.79M133.336 165.16l-8.754-20.73M102.25 141.64l-8.754-20.734" stroke-width="1.2" stroke="#000" stroke-miterlimit="10" fill="none"/><path d="M102.25 141.64l16.746-15.55-6.336-4.793zm0 0"/><path d="M88.668 159.59l13.582-17.95M93.496 120.906l-22.332-2.785M71.164 118.12l-13.582 17.95M57.582 136.07l8.754 20.735" stroke-width="1.2" stroke="#000" stroke-miterlimit="10" fill="none"/><path d="M57.582 136.07l-21.84-6.726-.984 7.883zm0 0M88.668 159.59l-21.84-6.727-.984 7.883zm0 0"/><path d="M66.336 156.805l1.137 22.476M66.336 156.805l-21.938 5.02M88.668 159.59l8.754 20.734M97.422 180.324l22.336 2.785M119.758 183.11l13.578-17.95M133.336 165.16l22.332 2.79" stroke-width="1.2" stroke="#000" stroke-miterlimit="10" fill="none"/><path d="M133.336 165.16l.223 15.293 7.64-2.176zm0 0"/><path d="M155.668 167.95l8.754 20.734" stroke-width="1.2" stroke="#000" stroke-miterlimit="10" fill="none"/><path d="M155.668 167.95m-2.125 2.113l1.348.78m-3.476 1.337l2.695 1.562m-4.825.55l4.047 2.35m-6.172-.232l5.39 3.125m-7.52-1.012l6.743 3.91m-6.95-3.703l6.872 3.985" stroke="#000" stroke-miterlimit="10" fill="none"/><path d="M164.422 188.684l22.332 2.785" stroke-width="1.2" stroke="#000" stroke-miterlimit="10" fill="none"/><path d="M20.25 127.785h15v11h-15zm0 0" fill="#fff"/><g fill="#f00"><use xlink:href="#b" x="20.25" y="136.448"/><use xlink:href="#a" x="27.265" y="136.448"/></g><path d="M251.965 133.383l3.308-10.754" stroke-width="1.2" stroke="#000" stroke-miterlimit="10" fill="none"/><path d="M255.273 122.63l3.313-10.76" stroke-width="1.2" stroke="#f00" stroke-miterlimit="10" fill="none"/><path d="M246.902 131.824l3.313-10.754" stroke-width="1.2" stroke="#000" stroke-miterlimit="10" fill="none"/><path d="M250.215 121.07l3.308-10.754" stroke-width="1.2" stroke="#f00" stroke-miterlimit="10" fill="none"/><path d="M249.434 132.605l7.656 8.243" stroke-width="1.2" stroke="#000" stroke-miterlimit="10" fill="none"/><path d="M257.09 140.848l7.66 8.246" stroke-width="1.2" stroke="#f00" stroke-miterlimit="10" fill="none"/><path d="M252.055 105.594h8v11h-8zm0 0" fill="#fff"/><use xlink:href="#a" x="252.055" y="114.257" fill="#f00"/><path d="M257.75 143.594h15v11h-15zm0 0" fill="#fff"/><g fill="#f00"><use xlink:href="#a" x="257.75" y="152.257"/><use xlink:href="#b" x="265.092" y="152.257"/></g></g></svg>
